svgs/LinkedIN-icons.svg

<svg height="60" viewBox="0 0 60 60" width="60" xmlns="http://www.w3.org/2000/svg"><path d="m0 30c0-16.5685433 13.4314567-30 30-30s30 13.4314567 30 30-13.4314567 30-30 30-30-13.4314567-30-30zm21.2006775-5.1526896h-6.7986561v20.4271393h6.7986561zm.4477766-6.3189383c-.044126-2.002868-1.4763867-3.5283721-3.8021641-3.5283721s-3.84629 1.5255041-3.84629 3.5283721c0 1.9613818 1.475572 3.5308125 3.7580381 3.5308125h.0434471c2.3705822 0 3.8469689-1.5694307 3.8469689-3.5308125zm24.0707779 15.0337802c0-6.2743337-3.3539801-9.1945107-7.8278092-9.1945107-3.6096391 0-5.2257353 1.9826672-6.1280772 3.373544v-2.8933329h-6.7994707c.0896097 1.9167771 0 20.4271393 0 20.4271393h6.7994707v-11.4081999c0-.6104999.044126-1.2195084.2238883-1.6566063.4913595-1.219644 1.6101223-2.4824013 3.4883946-2.4824013 2.4611423 0 3.4449475 1.8731216 3.4449475 4.6181341v10.9285311h6.7983845z" fill="#e96e14" fill-rule="evenodd"/></svg>

<?xml version="1.0" encoding="UTF-8"?>
<svg width="60px" height="60px" viewBox="0 0 60 60" version="1.1" xmlns="http://www.w3.org/2000/svg" xmlns:xlink="http://www.w3.org/1999/xlink">
    <!-- Generator: Sketch 41.2 (35397) - http://www.bohemiancoding.com/sketch -->
    <title>LinkedIN-icons</title>
    <desc>Created with Sketch.</desc>
    <defs></defs>
    <g id="Page-1" stroke="none" stroke-width="1" fill="none" fill-rule="evenodd">
        <g id="Desktop-HD" transform="translate(-536.000000, -1431.000000)" fill="#E96E14">
            <g id="Group-2" transform="translate(433.000000, 1431.000000)">
                <g id="LinkedIN" transform="translate(103.000000, 0.000000)">
                    <path d="M0,30 C0,13.4314567 13.4314567,0 30,0 C46.5685433,0 60,13.4314567 60,30 C60,46.5685433 46.5685433,60 30,60 C13.4314567,60 0,46.5685433 0,30 Z M21.2006775,24.8473104 L14.4020214,24.8473104 L14.4020214,45.2744497 L21.2006775,45.2744497 L21.2006775,24.8473104 Z M21.6484541,18.5283721 C21.6043281,16.5255041 20.1720674,15 17.84629,15 C15.5205126,15 14,16.5255041 14,18.5283721 C14,20.4897539 15.475572,22.0591846 17.7580381,22.0591846 L17.8014852,22.0591846 C20.1720674,22.0591846 21.6484541,20.4897539 21.6484541,18.5283721 Z M45.719232,33.5621523 C45.719232,27.2878186 42.3652519,24.3676416 37.8914228,24.3676416 C34.2817837,24.3676416 32.6656875,26.3503088 31.7633456,27.7411856 L31.7633456,24.8478527 L24.9638749,24.8478527 C25.0534846,26.7646298 24.9638749,45.274992 24.9638749,45.274992 L31.7633456,45.274992 L31.7633456,33.8667921 C31.7633456,33.2562922 31.8074716,32.6472837 31.9872339,32.2101858 C32.4785934,30.9905418 33.5973562,29.7277845 35.4756285,29.7277845 C37.9367708,29.7277845 38.920576,31.6009061 38.920576,34.3459186 L38.920576,45.2744497 L45.7189605,45.2744497 L45.719232,33.5621523 Z" id="Combined-Shape"></path>
                </g>
            </g>
        </g>
    </g>
</svg>
